X:105
T:Le Tourment
C:Jean-Paul Loyer
M:6/8
L:1/8
K:C
% Chords by A.W. for SPUDS
|:G,|"F"A,2A, A,B,C|"G"G,CB, "C"CDE|"Dm"G3 GFE| FED "Em"EDC|
"F"A,2A, A,B,C|"G"G,CB, "Am"CDE|"Em"GFE "F(Dm)"FED|"G"G,CB, "C"C2:|
 G,|:"C"CB,C "G"DCD|"C"EGF EDC|"F"A,2F FEF|"G"G3 GAB|
"Am(C)"c2c "Em(G)"G2G|"F"A2A "C"E2E|"Dm(F)"FED EDC|1 "G"DCB, G,A,B, :|2 "G"G,CB, "C"C2:|
